X:1
T:Title
%%score { 1 | 2 }
L:1/8
Q:1/4=100
M:6/8
K:Ab
V:1 treble nm="Grand Piano"
V:2 bass 
V:1
 [CE][DF][CE] [CA]2 [Ec] | [EB]2 [EA] G2 F | E2 [EA] [DG]2 [CA] | B3- B2 E | %4
w: G.~F.~Root * * * *||||
 [CE][DF][CE] [CA]2 [Ec] | [EB]2 [EA] [EG]2 F | E2 c B2 G |[M:5/8] [A,CA]-[A,CA]- [A,CA]3 | %8
w: ||||
[M:1/8] E |[M:3/4] B2 E c2 E | dc B c2 B | A2 c [=DB]2 [DA] | [EB]4- [EB][DE] | %13
w: |||||
 [CE][CF] [CE] [CA]2 [EA] |[M:7/8] [DB]2 [Cc] [Fd]3 [Ec] |[M:3/4] B2 =A B2 c | [CA]6 |] %17
w: ||||
V:2
 [A,,A,][A,,A,][A,,A,] [A,,A,]2 [G,,A,] | [B,,G,]2 [C,A,] [D,A,D]2 [D,A,D] | %2
 [C,A,]2 [C,A,] [B,,E,]2 [A,,A,] | [E,G,E]3- [E,G,E]2 [E,G,] | [A,,A,]2 [A,,A,] [A,,A,]2 [A,,A,] | %5
 [B,,G,]2 [C,A,] [D,A,]2 [D,A,D] | [E,A,C]2 [E,A,E] [E,G,D]2 [E,B,D] |[M:5/8] A,,-A,,- A,,3 | %8
[M:1/8] E, |[M:3/4] [E,G,E]2 E, [E,A,E]2 E, | [E,B,E][E,A,E] [E,G,E] [A,E]2 [G,B,E] | %11
 [F,CF]2 [F,A,F] [B,,F,]2 [B,,A,] | [E,G,]4- [E,G,][E,G,] | %13
 [A,,A,][A,,A,] [A,,A,] [A,,A,]2 [C,A,] |[M:7/8] [B,,G,]2 [A,,A,] [D,A,]3 [D,A,] | %15
[M:3/4] [E,G,D]2 [E,G,C] [E,G,D]2 [E,G,E] | [A,,A,]6 |] %17

